X:1
T:The Killavil Fancy
R:reel
M:4/4
L:1/8
K:G
|~B2BG A2BA|GE~E2 cEGE|DGBG A2BA|GEED EGGA|
|~B2dB A2BA|GE~E2 cEGE|DGBG A2BA|GEED EGGD|
|G2Bd efge|dB~B2 dBAF|G2Bd efge|dBAG EGGD|
|G2Bd efge|dB~B2 dega|bgag eg~g2 gedB AGED|